X:108
T:Old Joe's
Z: id:dc-jig-89
M:6/8
L:1/8
K:D Major
e|fAA AFA|BAF A3|BdB AFA|Bcd efg|!
fAA AFA|BAF A3|BdB AFA|Bdc d2:|!
e|f3 e3|dBA d2e|faa afd|faa b2a|!
f3 e3|dBA d2e|fAA AFA|Bdc d2:|!

